X: 39
T: JIG: Fanning's
C: C: Trad.; S: Denis Murphy
C: Set Leaders: Anton, Oliushka
Z: Anton Zille ed.; Bregolas at The Session
N: https://thesession.org/members/26966/sets/90908
R: Jig
M: 6/8
L: 1/8
Q: 3/8=116
K: Emin
D |: GBd e/d/BG | ~F3 AFD | EDE ~G3 | BAB edB |
GBB dBG | FEF AFA | gfe dBA |1 BEE EED :|2 BEE E2e||
|: geb geb | ~g3 bag | fda fda | fdf agf |
ede gfg | baf gfe | gfe dBA |1 BEE E2e :|2 BEE EED||

